X:30
T:Rossignolet... console-moi
R:Chanson
O:France
B:Le livre des Chansons (Henri Davenson) n30
Z:<anamnese@laposte.net> -- http://anamnese.fr.st
M:6/8
L:1/8
Q:1/4=80
K:F
z2 z C F G | A-F A c2 d | c2 A A c d | c2 A c2 G |!
HA3 A c B | A2 F G2 B | A2 G A c f | d2 B G2 A/-G/ | F3 ||
W:"Rossignolet du vert bocage, oh ! je t'en prie, console-moi :
W:On dit que ma mie est malade, oh ! permets-moi d'aller la voir !
W:
W:- Non, ta mie n'est pas malade, elle est gurie de tout mal :
W:Elle est morte et enterre,  elle il n'y faut plus penser. /.../
